**kern	**kern	**kern	**kern
*MM60	*MM60	*MM60	*MM60
*k[b-e-]	*k[b-e-]	*k[b-e-]	*k[b-e-]
*M4/4	*M4/4	*M4/4	*M4/4
*tb32	*tb32	*tb32	*tb32
=1	=1	=1	=1
1r	1r	1r	4g
.	.	.	4a
.	.	.	4b-
.	.	.	4g
=2	=2	=2	=2
1r	1r	1r	8ee-
.	.	.	8ee-
.	.	.	8ee-
.	.	.	8ee-
.	.	.	4a
.	.	.	8r
.	.	.	8a
=3	=3	=3	=3
1r	1r	1r	8dd
.	.	.	8dd
.	.	.	8dd
.	.	.	8dd
.	.	.	4g
.	.	.	8r
.	.	.	8ee-
=4	=4	=4	=4
1r	1r	1r	16dd
.	.	.	16ee-
.	.	.	16dd
.	.	.	16ee-
.	.	.	16dd
.	.	.	16ee-
.	.	.	16dd
.	.	.	16ee-
.	.	.	16cc
.	.	.	16dd
.	.	.	16cc
.	.	.	16dd
.	.	.	16cc
.	.	.	16dd
.	.	.	16cc
.	.	.	16dd
=5	=5	=5	=5
1r	1r	4d	4b-
.	.	4e	8a
.	.	.	8g
.	.	4f	4a
.	.	4d	[4ff
=6	=6	=6	=6
1r	1r	8b-	8ff]
.	.	8b-	16ee
.	.	.	16dd
.	.	8b-	[4gg
.	.	8b-	.
.	.	4e	16gg]
.	.	.	16aa
.	.	.	16ff
.	.	.	16gg
.	.	8r	16ee
.	.	.	16ff
.	.	8e	16dd
.	.	.	16ee
=7	=7	=7	=7
1r	1r	8a	[4cc#
.	.	8a	.
.	.	8a	8cc#]
.	.	8a	16dd
.	.	.	16ee
.	.	4d	16ff
.	.	.	16gg
.	.	.	16ee
.	.	.	16ff
.	.	8r	8dd
.	.	8b-	[8gg
=8	=8	=8	=8
1r	1r	16a	8gg]
.	.	16b-	.
.	.	16a	8cc
.	.	16b-	.
.	.	16a	[4ff
.	.	16b-	.
.	.	16a	.
.	.	16b-	.
.	.	16g	8ff]
.	.	16a	.
.	.	16g	8b-
.	.	16a	.
.	.	16g	[4ee
.	.	16a	.
.	.	16g	.
.	.	16a	.
=9	=9	=9	=9
1r	1r	4f	8ee]
.	.	.	8a
.	.	8e	2dd
.	.	8d	.
.	.	4e	.
.	.	4a	4cc#
=10	=10	=10	=10
1r	1r	8d	4dd
.	.	4b-	.
.	.	.	[4cc
.	.	16a	.
.	.	16g	.
.	.	4f#	8cc]
.	.	.	16dd
.	.	.	16cc
.	.	[4g	8.b-T
.	.	.	16a
=11	=11	=11	=11
1r	2r	4g]	8a
.	.	.	16dd
.	.	.	16ee-
.	.	4f#	16dd
.	.	.	16ee-
.	.	.	16cc
.	.	.	16dd
.	4G	4g	4b-
.	4A	8f	4cc
.	.	8e	.
=12	=12	=12	=12
1r	4B-	4d	16dd
.	.	.	16ee-
.	.	.	16cc
.	.	.	16dd
.	4G	[4b-	8b-
.	.	.	[8gg
.	8e-	8b-]	4gg_
.	8e-	16a	.
.	.	16g	.
.	8e-	[4cc	16gg]
.	.	.	16ff
.	8e-	.	16ee-
.	.	.	16dd
=13	=13	=13	=13
1r	4A	16cc]	4cc
.	.	16dd	.
.	.	16b-	.
.	.	16cc	.
.	8r	16a	[4ff
.	.	16b-	.
.	8A	16g	.
.	.	16a	.
.	8d	8f	4ff_
.	8d	16g	.
.	.	16a	.
.	8d	[4b-	16ff]
.	.	.	16ee-
.	8d	.	16dd
.	.	.	16cc
=14	=14	=14	=14
1r	4G	16b-]	4b-
.	.	16cc	.
.	.	16a	.
.	.	16b-	.
.	8r	8g	4r
.	8e-	[8cc	.
.	16d	4cc]	[4ff
.	16e-	.	.
.	16d	.	.
.	16e-	.	.
.	16d	[4b-	16ff]
.	16e-	.	16gg
.	16d	.	16ff
.	16e-	.	16gg
=15	=15	=15	=15
1r	16c	4b-]	[4ee-
.	16d	.	.
.	16c	.	.
.	16d	.	.
.	16c	[4a	16ee-]
.	16d	.	16ff
.	16c	.	16ee-
.	16d	.	16ff
.	4B-	8a]	4.dd
.	.	8d	.
.	8A	[4g	.
.	8G	.	16cc
.	.	.	16b-
=16	=16	=16	=16
1r	4A	8g]	[4cc
.	.	16f#	.
.	.	16e	.
.	4d	4f#	8cc]
.	.	.	16b-
.	.	.	16a
.	8G	2g	16b-
.	.	.	16a
.	8A	.	16b-
.	.	.	16cc
.	8B-	.	16dd
.	.	.	16cc
.	8c	.	16b-
.	.	.	16cc
=17	=17	=17	=17
4D	4d	4f	8a
.	.	.	16g
.	.	.	16f
4E	8c	8e	8.gT
.	8B-	8d	.
.	.	.	16a
4F	4A	4c	[4a
4D	[4f	4r	16a]
.	.	.	16a
.	.	.	16b
.	.	.	16cc#
=18	=18	=18	=18
8B-	8f]	1r	8dd
8B-	16e	.	8cc
.	16d	.	.
8B-	[4g	.	8b-
8B-	.	.	8a
4E	16g]	.	4g
.	16a	.	.
.	16f	.	.
.	16g	.	.
8r	16e	.	8r
.	16f	.	.
8E	16d	.	8g
.	16e	.	.
=19	=19	=19	=19
8A	8c	1r	8cc
8A	16d	.	8b-
.	16e	.	.
8A	[4f	.	8a
8A	.	.	8g
4D	16f]	.	4f
.	16A	.	.
.	16B-	.	.
.	16c	.	.
8r	4d	.	16r
.	.	.	16dd
8B-	.	.	16cc
.	.	.	16b-
=20	=20	=20	=20
16A	8r	1r	4cc
16B-	.	.	.
16A	8c	.	.
16B-	.	.	.
16A	[4f	.	8r
16B-	.	.	.
16A	.	.	8ff
16B-	.	.	.
16G	8f]	.	4bb-
16A	.	.	.
16G	8f	.	.
16A	.	.	.
16G	[4e	.	8r
16A	.	.	.
16G	.	.	8bb-
16A	.	.	.
=21	=21	=21	=21
[4F	16e]	1r	[4aa
.	16A	.	.
.	16B	.	.
.	16c#	.	.
8F]	[4d	.	16aa]
.	.	.	16aa
8D	.	.	16gg
.	.	.	16ff
4E	16d]	.	[4gg
.	16d	.	.
.	16c#	.	.
.	16B	.	.
4A	4c#	.	16gg]
.	.	.	16gg
.	.	.	16ff
.	.	.	16ee
=22	=22	=22	=22
4D	16d	1r	[4ff
.	16F	.	.
.	16G	.	.
.	16A	.	.
8r	[4B-	.	16ff]
.	.	.	16ff
8GG	.	.	16ee-
.	.	.	16dd
4C	16B-]	.	[4ee-
.	16B-	.	.
.	16A	.	.
.	16G	.	.
4F	4A	.	16ee-]
.	.	.	16ee-
.	.	.	16dd
.	.	.	16cc
=23	=23	=23	=23
4.BB-	16B-	1r	[4dd
.	16c	.	.
.	16A	.	.
.	16B-	.	.
.	[4G	.	16dd]
.	.	.	16dd
8BB	.	.	16ee-
.	.	.	16ff
[2C	8G]	.	16ee-
.	.	.	16gg
.	16c	.	16aa
.	16d	.	16bb-
.	16e-	.	16ccc
.	16d	.	16bb-
.	16c	.	16aa
.	16B-	.	16gg
=24	=24	=24	=24
4C]	4A	1r	16ff#
.	.	.	16gg
.	.	.	16ee
.	.	.	16ff#
4BB-	[4G	.	16gg
.	.	.	16dd
.	.	.	16ee-
.	.	.	16ff
4C	8G]	.	16ee-
.	.	.	16dd
.	8G	.	16cc
.	.	.	16dd
4D	8.G	.	8.b-T
.	16F#	.	32a
.	.	.	32g
=25	=25	=25	=25
4GG	8G	4g	4g
.	[8e-	.	.
4r	16e-]	4a	8r
.	16g	.	.
.	16f	.	8cc
.	16e-	.	.
2r	8d	4b-	16dd
.	.	.	16ee-
.	8B-	.	16cc
.	.	.	16dd
.	16e-	4g	8b-
.	16f	.	.
.	16d	.	[8gg
.	16e-	.	.
=26	=26	=26	=26
1r	[4c	8ee-	16gg]
.	.	.	16gg
.	.	8ee-	16aa
.	.	.	16bb-
.	16c]	8ee-	8aa
.	16c	.	.
.	16B-	8ee-	8gg
.	16c	.	.
.	16d	4a	4ff#
.	16c	.	.
.	16d	.	.
.	16e-	.	.
.	16d	8r	8r
.	16e-	.	.
.	16d	8a	8ff#
.	16c	.	.
=27	=27	=27	=27
1r	4B-	8dd	16gg
.	.	.	16gg
.	.	8dd	16bb-
.	.	.	16aa
.	8r	8dd	16gg
.	.	.	16aa
.	8B-	8dd	16gg
.	.	.	16ff
.	16c	4g	4ee-
.	16B-	.	.
.	16c	.	.
.	16d	.	.
.	16c	8r	[4aa
.	16d	.	.
.	16c	8ee-	.
.	16d	.	.
=28	=28	=28	=28
1r	8B-	16dd	4aa]
.	.	16ee-	.
.	8BB-	16dd	.
.	.	16ee-	.
.	8.E-	16dd	2gg
.	.	16ee-	.
.	.	16dd	.
.	16e-	16ee-	.
.	8A	16cc	.
.	.	16dd	.
.	8AA	16cc	.
.	.	16dd	.
.	8.D	16cc	4ff#
.	.	16dd	.
.	.	16cc	.
.	16DD	16dd	.
=29	=29	=29	=29
1r	8GG	4b-	8gg
.	8G	.	[8dd
.	8F#	8a	16dd]
.	.	.	16cc
.	8G	8g	16b-
.	.	.	32a
.	.	.	32g
.	16r	4cc	8r
.	16E-	.	.
.	16D	.	[8gg
.	16C	.	.
.	8BB	4dd	16gg]
.	.	.	16aa-
.	8GG	.	16gg
.	.	.	16ff
=30	=30	=30	=30
1r	16C	4g	4ee-
.	16E-	.	.
.	16D	.	.
.	16F	.	.
.	16E-	8r	8r
.	16D	.	.
.	16E-	8g	8ee-
.	16C	.	.
.	4F	16a	4ee-
.	.	16cc	.
.	.	16b-	.
.	.	16dd	.
.	8r	16cc	8r
.	.	16b-	.
.	8FF	16cc	8ee-
.	.	16a	.
=31	=31	=31	=31
1r	16BB-	4b-	4dd
.	16D	.	.
.	16C	.	.
.	16E-	.	.
.	16D	8r	4r
.	16C	.	.
.	16D	8b-	.
.	16BB-	.	.
.	8E-	8g	2r
.	8D	16a	.
.	.	16b-	.
.	8C#	16a	.
.	.	16b-	.
.	8AA	16g	.
.	.	16a	.
=32	=32	=32	=32
1r	8.D	16f	4dd
.	.	16d	.
.	.	[8b-	.
.	16d	.	.
.	8G	16b-]	4ee
.	.	16d	.
.	8A	16c#T	.
.	.	32B	.
.	.	32c#	.
.	4D	8d	4ff
.	.	8e	.
.	4r	8f	4dd
.	.	8d	.
=33	=33	=33	=33
1r	1r	16g	8bb-
.	.	16d	.
.	.	16g	8bb-
.	.	16b-	.
.	.	16dd	8bb-
.	.	16b-	.
.	.	16g	8bb-
.	.	16b-	.
.	.	16cc	4ee
.	.	16g	.
.	.	16e	.
.	.	16g	.
.	.	16c	8r
.	.	16b-	.
.	.	16a	8ee
.	.	16g	.
=34	=34	=34	=34
1r	1r	16f	8aa
.	.	16c	.
.	.	16f	8aa
.	.	16a	.
.	.	16cc	8aa
.	.	16a	.
.	.	16f	8aa
.	.	16a	.
.	.	16b-	4dd
.	.	16f	.
.	.	16d	.
.	.	16f	.
.	.	16B-	8r
.	.	16b-	.
.	.	16a	8bb-
.	.	16g	.
=35	=35	=35	=35
1r	1r	4f#	16aa
.	.	.	16bb-
.	.	.	16aa
.	.	.	16bb-
.	.	8r	16aa
.	.	.	16bb-
.	.	8cc	16aa
.	.	.	16bb-
.	.	8.b-	16gg
.	.	.	16aa
.	.	.	16gg
.	.	16a	16aa
.	.	8.b-	16gg
.	.	.	16aa
.	.	.	16gg
.	.	16g	16aa
=36	=36	=36	=36
1r	1r	8a	4ff
.	.	16b-	.
.	.	16a	.
.	.	8.gT	8.eeM
.	.	16f	16dd
.	.	8g	4ee
.	.	16a	.
.	.	16g	.
.	.	8.f	4aa
.	.	16e	.
=37	=37	=37	=37
1r	1r	16f	4dd
.	.	16d	.
.	.	16f	.
.	.	16a	.
.	.	4dd	16r
.	.	.	16bb-
.	.	.	16bb-
.	.	.	16bb-
.	.	16r	8bb-
.	.	16c	.
.	.	16e	8aa
.	.	16a	.
.	.	4cc	16r
.	.	.	16aa
.	.	.	16aa
.	.	.	16aa
=38	=38	=38	=38
1r	1r	16r	8aa
.	.	16B-	.
.	.	16d	8gg
.	.	16g	.
.	.	8b-	16r
.	.	.	16dd
.	.	8r	16gg
.	.	.	16bb-
.	.	16a	8ccc
.	.	16b-	.
.	.	16a	[8cc
.	.	16g	.
.	.	4f#	16cc]
.	.	.	16b-
.	.	.	16cc
.	.	.	16dd
=39	=39	=39	=39
1r	4G	8g	16b-
.	.	.	16a
.	.	8B-	16g
.	.	.	16a
.	4A	4c	8.f#T
.	.	.	16g
.	4B-	8d	8g
.	.	16g	8r
.	.	16a	.
.	4G	16b-	4r
.	.	16cc	.
.	.	16b-	.
.	.	16a	.
=40	=40	=40	=40
1r	8e-	4g	16cc
.	.	.	16b
.	8e-	.	16cc
.	.	.	16dd
.	8e-	4r	16ee-
.	.	.	16dd
.	8e-	.	16ee-
.	.	.	16cc
.	4A	8r	16ff
.	.	.	16gg
.	.	8c	16ff
.	.	.	16ee-
.	8r	[4f	16dd
.	.	.	16ee-
.	8A	.	16dd
.	.	.	16cc
=41	=41	=41	=41
1r	8d	8f]	4b-
.	8d	8f	.
.	8d	8b-	16r
.	.	.	16b-
.	8d	8r	16cc
.	.	.	16dd
.	4G	4r	16ee-
.	.	.	16ff
.	.	.	16ee-
.	.	.	16dd
.	8r	16r	[4cc
.	.	16b-	.
.	8e-	16a	.
.	.	16g	.
=42	=42	=42	=42
1r	16d	8f	8.cc]
.	16e-	.	.
.	16d	[8f	.
.	16e-	.	16cc
.	16d	8f]	[4b-
.	16e-	.	.
.	16d	16f	.
.	16e-	16g	.
.	16c	8e-	16b-]
.	16d	.	8b-
.	16c	[8e-	.
.	16d	.	16b-
.	16c	8e-]	[4a
.	16d	.	.
.	16c	16e-	.
.	16d	16f	.
=43	=43	=43	=43
1r	[4B-	4d	16a]
.	.	.	16b-
.	.	.	16a
.	.	.	16b-
.	16B-]	8r	[4g
.	16B-	.	.
.	16A-	8g	.
.	16G	.	.
.	[4A-	4cc	16g]
.	.	.	16g
.	.	.	16f
.	.	.	16e
.	16A-]	8cc	8f
.	16A-	.	.
.	16G	8dd	[8ff
.	16F	.	.
=44	=44	=44	=44
1r	4G	4b	16ff]
.	.	.	16gg
.	.	.	16ff
.	.	.	16gg
.	8r	8r	16ff
.	.	.	16gg
.	8D	8b	16ff
.	.	.	16gg
.	16E-	[4cc	8.ee-
.	16C	.	.
.	16A-	.	.
.	16E-	.	16ee-
.	16F	8cc]	8.dd
.	16D	.	.
.	16G	[8b-	.
.	16D	.	16dd
=45	=45	=45	=45
1r	16E	8b-]	8.cc
.	16C	.	.
.	16F	[8a-	.
.	16C	.	16cc
.	16D	8a-]	8.b-
.	16C	.	.
.	16D	[8g	.
.	16E	.	16b-
.	16F	8g]	4a-
.	16G	.	.
.	16A-	[8f	.
.	16B-	.	.
.	16c	8f]	8g
.	16C	.	.
.	16E-	[8e-	16cc
.	16C	.	16b-
=46	=46	=46	=46
2r	[2F	8e-]	16a
.	.	.	16ff
.	.	8d	16b-
.	.	.	16gg
.	.	[4c	16ee-
.	.	.	16g
.	.	.	16a
.	.	.	16ee-
4BB-	4F]	8c]	16dd
.	.	.	16f
.	.	[8B-	16b-
.	.	.	16dd
4C	4c	8B-]	16ee-
.	.	.	16g
.	.	8A	16cc
.	.	.	16ee-
=47	=47	=47	=47
4D	8r	16B-	4ff
.	.	16A	.
.	8F	16B-	.
.	.	16c	.
4BB-	4B-	16d	4r
.	.	16B-	.
.	.	16c	.
.	.	16d	.
8G	8r	16e-	4r
.	.	16d	.
8G	8B-	16e-	.
.	.	16f	.
8G	[4e-	[4g	16r
.	.	.	16b-
8G	.	.	16cc
.	.	.	16dd
=48	=48	=48	=48
4C	4e-]	4g]	16ee-
.	.	.	16gg
.	.	.	16ee-
.	.	.	16cc
8r	8r	8r	16g
.	.	.	16cc
8C	[8e-	8g	16ee-
.	.	.	16gg
8F	8e-]	16a	8.ff
.	.	16f	.
8F	8d	[8b-	.
.	.	.	16ff
8F	4c	16b-]	8.ee-
.	.	16g	.
8F	.	8a	.
.	.	.	16ee-
=49	=49	=49	=49
4BB-	16B-	4b-	4dd
.	16g	.	.
.	16f	.	.
.	16e-	.	.
8r	16d	4r	8r
.	16c	.	.
8G	16d	.	[8bb-
.	16e	.	.
16F	8f	2r	8bb-]
16G	.	.	.
16F	8c	.	16aa
16G	.	.	16gg
16F	[4f	.	8aa
16G	.	.	.
16F	.	.	8dd
16G	.	.	.
=50	=50	=50	=50
16E-	8f]	1r	[4gg
16F	.	.	.
16E-	8B-	.	.
16F	.	.	.
16E-	4e-	.	8gg]
16F	.	.	.
16E-	.	.	16ff
16F	.	.	16ee-
4.D	16r	.	[4ff
.	16f	.	.
.	16g	.	.
.	16a	.	.
.	[4b-	.	16ff]
.	.	.	16ff
8BB-	.	.	16ee-
.	.	.	16dd
=51	=51	=51	=51
4C	16b-]	1r	[4ee-
.	16b-	.	.
.	16a	.	.
.	16g	.	.
4F	4a	.	16ee-]
.	.	.	16ee-
.	.	.	16ee-
.	.	.	16ee-
[2BB-	16r	.	8dd
.	8f	.	.
.	.	.	8dd
.	16f	.	.
.	16r	.	8cc
.	8e-	.	.
.	.	.	8b-
.	16d	.	.
=52	=52	=52	=52
4BB-]	16c	1r	16ee-
.	16B-	.	16dd
.	16c	.	16ee-
.	16d	.	16ff
4AA	8.cT	.	8.ee-M
.	16B-	.	16dd
2BB-	8B-	.	16dd
.	.	.	16f
.	16r	.	16b-
.	16F	.	16cc
.	16B-	.	16dd
.	16c	.	16ee
.	16d	.	16ff
.	16e	.	16gg
=53	=53	=53	=53
2FF	16f	1r	8aa
.	16c	.	.
.	16f	.	16r
.	16g	.	16cc
.	16a	.	16ff
.	16b	.	16gg
.	16cc	.	16aa
.	16dd	.	16bb
2C	16ee-	.	8ccc
.	16G	.	.
.	16c	.	16r
.	16d	.	16g
.	16e-	.	16cc
.	16f	.	16dd
.	16g	.	16ee-
.	16a	.	16ff
=54	=54	=54	=54
2GG	8b-	1r	16dd
.	.	.	16cc
.	8a	.	16dd
.	.	.	16ee-
.	8g	.	8.ee-T
.	8f	.	.
.	.	.	16dd
2AA	16e	.	16cc#
.	16g	.	16ee
.	16f	.	16dd
.	16g	.	16ee
.	8.e#	.	8.cc#T
.	16d	.	16dd
=55	=55	=55	=55
8D	4d	4d	4dd
4B-	.	.	.
.	4c	4e	4g
8B-	.	.	.
8A	4c	4f	4a
8F	.	.	.
8B-	4c	4d	4f
8A	.	.	.
=56	=56	=56	=56
4G	4d	8b-	4g
.	.	8b-	.
8r	8r	8b-	8r
8G	8d	8b-	[8gg
8A	2c#	4e	16gg]
.	.	.	16gg
8G	.	.	16aa
.	.	.	16bb-
8F	.	8r	8.aa
8E	.	8e	.
.	.	.	16gg
=57	=57	=57	=57
4D	4d	8a	4ff
.	.	8a	.
4r	8r	8a	8r
.	8F	8a	8cc
2r	8B-	4d	16dd
.	.	.	16gg
.	8G	.	16ff
.	.	.	16gg
.	8c	8r	8.eeT
.	8C	8b-	.
.	.	.	16ff
=58	=58	=58	=58
1r	4F	16a	4ff
.	.	16b-	.
.	.	16a	.
.	.	16b-	.
.	8r	16a	8r
.	.	16b-	.
.	8A	16a	8cc#
.	.	16b-	.
.	8B	16g	4dd
.	.	16a	.
.	8A	16g	.
.	.	16a	.
.	8B	16g	8r
.	.	16a	.
.	8c#	16g	8ee
.	.	16a	.
=59	=59	=59	=59
1r	8d	4.f	4.a
.	8D	.	.
.	[4B-	.	.
.	.	16e	16g
.	.	16d	16f
.	8B-]	4.e	4.g
.	16A	.	.
.	16G	.	.
.	4A	.	.
.	.	16d	16f
.	.	16c#	16e
=60	=60	=60	=60
1r	4D	4d	16f
.	.	.	16ff
.	.	.	16ff
.	.	.	16ff
.	8r	8r	4b-
.	8d	8f	.
.	4e-	4g	16r
.	.	.	16gg
.	.	.	16gg
.	.	.	16gg
.	8r	8r	4cc
.	8e	8g	.
=61	=61	=61	=61
1r	4f	4a	16r
.	.	.	16aa
.	.	.	16aa
.	.	.	16aa
.	8r	8r	4dd
.	8f#	8a	.
.	8g	2b-	16r
.	.	.	16dd
.	8f	.	16ee-
.	.	.	16dd
.	16e	.	4cc
.	16g	.	.
.	16e	.	.
.	16c	.	.
=62	=62	=62	=62
1r	8f	2a	16r
.	.	.	16cc
.	8e-	.	16dd
.	.	.	16cc
.	16d	.	4b-
.	16f	.	.
.	16d	.	.
.	16B-	.	.
.	8e-	2g	16r
.	.	.	16b-
.	8d	.	16cc
.	.	.	16b-
.	16c	.	4a
.	16e-	.	.
.	16c	.	.
.	16A	.	.
=63	=63	=63	=63
1r	4d	8.f#	16r
.	.	.	16a
.	.	.	16b-
.	.	16g	16cc
.	16r	[4a	[4cc
.	16F#	.	.
.	16E	.	.
.	16F#	.	.
.	8G	16a]	8cc]
.	.	8a	.
.	8E-	.	8b-
.	.	[16g	.
.	8C	16g]	8a
.	.	16g	.
.	8D	8f	8b-
=64	=64	=64	=64
4GG	16GG	8g	8g
.	16BB-	.	.
.	16D	8r	8r
.	16G	.	.
4AA	8F#	16r	4r
.	.	16A	.
.	8r	16c	.
.	.	16e-	.
4BB-	8G	8d	16r
.	.	.	16g
.	8r	8r	16b-
.	.	.	16dd
4GG	8r	8r	16gg
.	.	.	16ff
.	8B-	8g	16ee-
.	.	.	16dd
==	==	==	==
*-	*-	*-	*-
